X: 163
T: Aşk Denilen Ateşe Yanalım mı
C: Erol Sayan
O: Turkey
F: http://compmusic.upf.edu/node/140
N: rast--sarki--sofyan--ask_denilen--erol_sayan
N: makam= rast
N: form= sarki
N: usul= sofyan = 4/4
M: 4/4
L: 1/16
K: C _1/4B ^f  
Q: 1/4=138
%%MIDI tuningsystem comma53
c8 z4 A2c2  | B8 z4 G2B2  | A8 z4 F2A2  | \
w:  ARANAĞME  |   |   | 
G4 E4 z2G2 A2B2  | c8 z4 B2d2  | 
w:   |   | 
B8 z4 B2G2  | A4 A2A2 z4 F2A2  | G4 G2G2 G2G2 A2B2  | \
w:   |   |   | 
c8 z4 A2c2  | 
w:  ARANAĞME  | 
B8 z4 G2B2  | A8 z4 F2A2  | G4 E4 z2G2 A2B2  | \
w:   |   |   | 
c8 z4 B2d2  | B8 z4 B2G2  | 
w:   |   | 
A4 A2A2 z4 F2A2  | G4 G2G2 G8  | c4 z8 A2c2  | \
w:   |   |  Aşk  de ni  | 
B4 z8 G2B2  | A4 z8 F2A2  | 
w:  len  a te  |  şe  ya na  | 
G4 E4 z2G2 A2B2  | c4 B2d2 z2c2 B2d2  | \
w:  lım  mı   SAZ  |  El  e le  SAZ  | 
B4 B2G2 B2c2 B2G2  | A4 A2A2 z4 F2A2  | 
w:  göz  gö ze  SAZ  |  böy le ce  ka la  | 
G4 G4 z2G2 A2B2  | c4 z8 A2c2  | B4 z8 G2B2  | \
w:  lım  mı   SAZ  |  Aşk  de ni  |  len  a te  | 
A4 z8 F2A2  | G4 E4 z2G2 A2B2  | 
w:  şe  ya na  |  lım  mı   SAZ  | 
c4 B2d2 z2c2 B2d2  | B4 B2G2 B2c2 B2G2  | \
w:  El  e le  SAZ  |  göz  gö ze  SAZ  | 
A4 A2A2 z4 F2A2  | G4 G4 z2d2 e2f2  | 
w:  böy le ce  ka la  |  lım  mı   SAZ  | 
g16  | e8 f4 (3e2f2e2  | d16  | z2c4B2 A2G2 F4  | \
w:  Rü  |  ya  *  do  |  lu   |  bir  ge cey *  di    | 
z2c2 B2A2 G2F2 E2D2  | 
w:  SAZ  | 
c16  | A8 z4 c2A2  | B8 z8  | z4 c2d2 e8  | \
w:  Meh  |  tap  ve  de  |  niz   |  se ni  an  | 
d12 B2c2  | d16  | z2G2 A2B2 c2d2 e2f2  | 
w:  dık  i ki  |  miz    |  SAZ  | 
g16  | e8 f4 (3e2f2e2  | d16  | z2c4B2 A2G2 F4  | \
w:  Rü  |  ya  *  do  |  lu   |  bir  ge cey *  di    | 
z2c2 B2A2 G2F2 E2D2  | 
w:  SAZ  | 
c16  | A8 z4 c2A2  | B8 z8  | z4 c2d2 e8  | \
w:  Meh  |  tap  ve  de  |  niz   |  se ni  an  | 
d12 B2c2  | d16  | z2G2 A2B2 c2d2 e2f2  | 
w:  dık  i ki  |  miz    |  SAZ  | 
g2e4e2 e4 e4  | e4 g4 f2g2 z4  | z2e4e2 e4 e4  | \
w:  *  Gök yü zün de   |  yıl dız la rı   |  yer yü zün de   | 
e4 g4 f2g2 a4  | e8 f8  | 
w:  sev da lı la rı   |  biz  san  | 
e16  | g2e4e2 e4 e4  | e4 g4 f2g2 z4  | \
w:  dık    |  *  Gök yü zün de   |  yıl dız la rı   | 
z2e4e2 e4 e4  | e4 g4 f2g2 a4  | 
w:  yer yü zün de   |  sev da lı la rı   | 
e8 f8  | g16  | g2g4g2 g8  | f2a4g2 f8  | z2e4e2 e4 d2e2  | f16  | \
w:  biz  san  |  dık    |  *  Mut lu luk   |  şı rıl  şı rıl   |  çağ la yan  ge ce  |  de   | 
z2f4f2 f8  | 
w:  gön lü müz   | 
e2g4e2 f8  | z2e4g2 e2f4d2  | d8 z2d2 e2f2  | \
w:  pı rıl  pı rıl   |  neş_ e  do lar  |  dı   SAZ  | 
g2g4g2 g8  | f2a4g2 f8  | 
w:  *  Mut lu luk   |  şı rıl  şı rıl   | 
z2e4e2 e4 d2e2  | f16  | z2f4f2 f8  | e2g4e2 f8  | \
w:  çağ la yan  ge ce  |  de   |  gön lü müz   |  pı rıl  pı rıl   | 
z2e4g2 e2f4d2  | 
w:  neş_ e  do lar  | 
d16  | z4 c2c2 B2d4B2  | B8 z8  | z4 A2B2 A2c4A2  | \
w:  dı    |  Bi zi  ya kan  |  sın   |  bi ze  ko şan  | 
A8 z8  | z2c4A2 B4 A4  | 
w:  sın    |  söy le yim  is  | 
G2F14  | B16  | A16  | G24 z2G2 A2B2  | c4 z8 A2c2  | \
w:  mi ni   |  sen   |  aşk  |  sın   SAZ  |  Aşk  de ni  | 
B4 z8 G2B2  | A4 z8 F2A2  | 
w:  len  a te  |  şe  ya na  | 
G4 E4 z2G2 A2B2  | c4 B2d2 z2c2 B2d2  | \
w:  lım  mı   SAZ  |  El  e le  SAZ  | 
B4 B2G2 B2c2 B2G2  | A4 A2A2 z4 F2A2  | 
w:  göz  gö ze  SAZ  |  böy le ce  ka la  | 
G4 G4 z2G2 A2B2  | c4 z8 A2c2  | B4 z8 G2B2  | \
w:  lım  mı   SAZ  |  Aşk  de ni  |  len  a te  | 
A4 z8 F2A2  | G4 E4 z2G2 A2B2  | 
w:  şe  ya na  |  lım  mı   SAZ  | 
c4 B2d2 z2c2 B2d2  | B4 B2G2 B2c2 B2G2  | \
w:  El  e le  SAZ  |  göz  gö ze  SAZ  | 
A4 A2A2 z4 F2A2  | G4 G4 z2|
w:  böy le ce  ka la  |  lım  mı    | 


